X:0107
T:Strip the Willow/Drops of Brandy
P:Drops of Brandy
C:Old Scots Jig called »Hey my Nannie« traced to 17th c.
R:9/8 Jig (4x40) ABABB
B:RSCDS 1-7
Z:Anselm Lingnau <anselm@strathspey.org>
M:9/8
K:G
"G"d2 c BGB BGB|d2 c BGB "D7"c2A|"G"d2c BGB BGB|"D7"{d}cBc A2B c2A|
"G"d2 c BGB BGB|d2 c BGB "D7"c2A|"G"d2c BGB BGB|"D7"{d}cBc A2B c2A||
"G"G2f gdB gdB|"C"G2f "G"gdB "D7"c2A|"G"G2f gag gdB|"Am"{d}cBc A2B c2A|
"G"G2f gdB gdB|"C"G2f "G"gdB "D7"c2A|"G"G2f gag gdB|"Am"{d}cBc A2B c2A|]
